T: Farewell, The
M: 4/4
L: 1/8
K: Dmaj
F>G|(A3G) (F3E) (DFAd) f3d|(eAef) {a}g2fg {f}e2EF E2 FG|(A3G) (F3E) (3DFA (3dfa g3fe|
(ed)cB (Ac)de f2d2 d2 FG|A3G F2FE (DFAd) f3d|(eAef) {a}g2fg {f}e2(EF) E2FG|
A3G F2E2 (3DFA (3dfa) g2fe|(ed)cB) (BA)GF A2D2 D2||f>g|a3d f3a d3e f3d|
g3e fagf e2E>F E2 fg|a2d2 (fedc (ed)cB (BAGF|(GB)A
d (ce)(Ag) f2d2 d2fg|(a3d) (f3c) d2D2 (BA)(GF)|(A,DFA) GBcd) f3e e2 FG|
(A3G) F3E (3DFA (3dfa g2 fe|(ed)cB (BA)GF A2D2 D2||
